!!!!SEGMENT: pl-sa--79-a-ii-19--013_siwinski-andrzej--missa-pro-defunctis-domine-iesu-christe.krn
!!!cenid: 17xx:305
!!!COM: Siwiński, Andrzej
!!!COM-rismID: pe41011487
!!!CDT: <1725->1725
!!!CNT:
!!!OPR: Missa pro defunctis
!!!OTL: Domine Iesu Christe
!!!OMV: 013
!!!PDT: 1726
!!!AGN: Sacred; Mass
!!!SMS-siglum: PL-SA
!!!SMS-shelfmark: 79/A II 19
!!!SMS-shelfwork: 001-013 M
!!!NIFC-rismSourceID: 1001070177
!!!NIFC-islandoraID:
!!!URL-pdf-islandora:
!!!URL-scan: https://bc.bdsandomierz.pl/dlibra/publication/1356/edition/1324/content @EN{Scan in the Sandomierz Diocese Digital Library} @PL{Skany w portalu Cyfrowa Biblioteka Diecezjalna w Sandomierzu}
!!!ONB-nifc: Uwaga: części Mszy: Requiem, Kyrie, Dies Irae, Quantus tremor, Tuba mirrum, Mors,
!!!AIN: 1 alto 3 empty 2 oboe 2 violn 1 vox
!!!key:
**kern	**fba	**kern	**kern	**kern	**text	**kern	**text	**kern	**text	**kern	**text	**kern	**kern
*part9	*part9	*part8	*part7	*part6	*part6	*part5	*part5	*part4	*part4	*part3	*part3	*part2	*part1
*staff9	*staff9	*staff8	*staff7	*staff6	*staff6	*staff5	*staff5	*staff4	*staff4	*staff3	*staff3	*staff2	*staff1
*Iempty	*	*Ivioln	*Ivioln	*Iempty	*	*Iempty	*	*Ialto	*	*Ivox	*	*Ioboe	*Ioboe
*I"P9	*	*I"Violino 2do	*I"Violino 1mo	*I"P6	*	*I"P5	*	*I"Alto.	*	*I"Canto	*	*I"Hobois 2do.	*I"Hautbo. 1mo.
*I'bc	*	*I'vl 2	*I'vl 1	*I'B	*	*I'T	*	*I'A	*	*I'S	*	*I'ob 2	*I'ob 1
*clefF4	*	*clefG2	*clefG2	*clefF4	*	*clefC4	*	*clefC3	*	*clefC1	*	*clefG2	*clefG2
*k[b-e-]	*	*k[e-b-]	*k[b-e-]	*k[b-e-]	*	*k[e-b-]	*	*k[b-e-]	*	*k[b-e-]	*	*k[e-b-]	*k[b-e-]
*g:	*	*g:	*g:	*g:	*	*g:	*	*g:	*	*g:	*	*g:	*g:
*M2/2	*	*M2/2	*M2/2	*M2/2	*	*M2/2	*	*M2/2	*	*M2/2	*	*M2/2	*M2/2
*met(c|)	*	*met(c|)	*met(c|)	*met(c|)	*	*met(c|)	*	*met(c|)	*	*met(c|)	*	*met(c|)	*met(c|)
=1	=1	=1	=1	=1	=1	=1	=1	=1	=1	=1	=1	=1	=1
!LO:TX:rj:b:t=Domine. Jesu. C.T.	!	!	!LO:TX:b:t=Domine Jesu christe	!	!	!	!	!	!	!	!	!	!
!LO:TX:a:t=P:problem=mixed beam	!	!LO:TX:b:t=Domine Jesu	!LO:TX:a:t=5	!	!	!	!	!	!	!LO:TX:rj:a:t=Solo	!	!LO:TX:rj:b:t=Domine	!LO:TX:b:t=Domine Jesu.
!LO:SIC:o:s:=:v: brak nazwy partii (na stronie tytułowej "Baſso pro Organo")	!	!	!	!LO:SIC:o:s:=:v: brak nazwy partii (na stronie tytułowej "Baſso vocali")	!	!LO:SIC:o:s:=:v: brak nazwy partii (na stronie tytułowej "Tenore")	!	!	!	!	!	!	!
!LO:SIC:o:s:=:v:znaki na początku systemu.brak powtórzenia przy metrum	!	!	!	!	!	!	!	!	!	!	!	!	!
!LO:TX:rj:a:t=Solo	!	!	!	!	!	!	!	!	!	!	!	!	!
8C/L	.	00r	00r	00r	.	1r	.	00r	.	8cc\L	Do-	0r	0r
8c\	.	.	.	.	.	.	.	.	.	(16dd\L	.	.	.
.	.	.	.	.	.	.	.	.	.	16cc\JJ)	.	.	.
(8Bn\	6	.	.	.	.	.	.	.	.	8dd\L	.	.	.
8G\J)	.	.	.	.	.	.	.	.	.	(16ee-\L	.	.	.
.	.	.	.	.	.	.	.	.	.	16dd\JJ)	.	.	.
4c\	.	.	.	.	.	.	.	.	.	8.ee-\	.	.	.
.	.	.	.	.	.	.	.	.	.	16dd\	-mi-	.	.
4r	.	.	.	.	.	.	.	.	.	4cc\	-ne	.	.
=2	=2	=2	=2	=2	=2	=2	=2	=2	=2	=2	=2	=2	=2
*	*	*	*	*	*	*	*	*	*	*	*ij	*	*
4C/	.	.	.	.	.	8c\L	Do-	.	.	8ee-\L	Do-	.	.
.	.	.	.	.	.	(16d\L	.	.	.	(16ff\L	.	.	.
.	.	.	.	.	.	16c\JJ)	.	.	.	16ee-\JJ)	.	.	.
4r	.	.	.	.	.	8d\L	.	.	.	8ff\L	.	.	.
.	.	.	.	.	.	16e-\L	.	.	.	(16gg\L	.	.	.
.	.	.	.	.	.	(16d\JJ	.	.	.	16ff\JJ)	.	.	.
8C/L	.	.	.	.	.	8.e-\)	.	.	.	8.gg\	.	.	.
8D/	.	.	.	.	.	.	.	.	.	.	.	.	.
.	.	.	.	.	.	16d\	-mi-	.	.	16ff\	-mi-	.	.
8E-/	.	.	.	.	.	4c\	-ne	.	.	4ee-\	-ne	.	.
8C/J	.	.	.	.	.	.	.	.	.	.	.	.	.
*	*	*	*	*	*	*	*	*	*	*	*Xij	*	*
=3	=3	=3	=3	=3	=3	=3	=3	=3	=3	=3	=3	=3	=3
!	!	!	!	!	!	!	!	!	!	!	!	!	!LO:TX:a:t=Solo
8D\L	.	.	.	.	.	(16d\LL	Je-	.	.	(16ff\LL	Je-	1r	2r
.	.	.	.	.	.	16e-\JJ)	.	.	.	16gg\JJ)	.	.	.
16E-\L	5	.	.	.	.	16c\LL	-su	.	.	(16ee-\LL	-su	.	.
16F\JJ	6	.	.	.	.	16d\JJ	.	.	.	16ff\JJ)	.	.	.
!LO:TX:a:t=P:problem=mixed beam	!	!	!	!	!	!	!	!	!	!	!	!	!
8G\L	.	.	.	.	.	4Bn\	chri-	.	.	4dd\	chri-	.	.
8GG/J	.	.	.	.	.	.	.	.	.	.	.	.	.
!LO:TX:a:t=P:problem=mixed beam	!	!	!	!	!	!	!	!	!	!	!	!	!
8C/L	.	.	.	.	.	4c\	-ste	.	.	4cc\	-ste	.	8cc\L
8c\	.	.	.	.	.	.	.	.	.	.	.	.	16dd\L
.	.	.	.	.	.	.	.	.	.	.	.	.	16cc\JJ
(8Bn\	6	.	.	.	.	4r	.	.	.	4r	.	.	8dd\L
8G\J)	.	.	.	.	.	.	.	.	.	.	.	.	16ee-\L
.	.	.	.	.	.	.	.	.	.	.	.	.	16dd\JJ
=4	=4	=4	=4	=4	=4	=4-	=4	=4	=4	=4	=4	=4	=4
!LO:TX:b:t=Hautb.	!	!	!	!	!	!	!	!	!	!LO:TX:a:t=2	!	!	!
4c\	.	.	.	.	.	0r	.	.	.	0r	.	2r	8.ee-\L
.	.	.	.	.	.	.	.	.	.	.	.	.	16dd\Jk
4r	.	.	.	.	.	.	.	.	.	.	.	.	4cc\
!LO:LB;g=original	!	!	!	!	!	!	!	!	!	!	!	!	!
4C/	.	.	.	.	.	.	.	.	.	.	.	8cc\L	8ee-\L
.	.	.	.	.	.	.	.	.	.	.	.	16dd\L	16ff\L
.	.	.	.	.	.	.	.	.	.	.	.	16cc\JJ	16ee-\JJ
4r	.	.	.	.	.	.	.	.	.	.	.	8dd\L	8ff\L
.	.	.	.	.	.	.	.	.	.	.	.	16ee-\L	16gg\L
.	.	.	.	.	.	.	.	.	.	.	.	16dd\JJ	16ff\JJ
=5	=5	=5	=5	=5	=5	=5	=5	=5	=5	=5	=5	=5	=5
8C/L	.	1r	1r	1r	.	.	.	1r	.	.	.	8ee-\L	8.gg\L
8D/	.	.	.	.	.	.	.	.	.	.	.	8dd\J	.
.	.	.	.	.	.	.	.	.	.	.	.	.	16ff\Jk
8E-/	.	.	.	.	.	.	.	.	.	.	.	4cc\	4ee-\
8C/J	.	.	.	.	.	.	.	.	.	.	.	.	.
8D\L	.	.	.	.	.	.	.	.	.	.	.	16dd\LL	16ff\LL
.	.	.	.	.	.	.	.	.	.	.	.	16ee-\	16gg\
16E-\L	.	.	.	.	.	.	.	.	.	.	.	16cc\	16ee-\
16F\JJ	.	.	.	.	.	.	.	.	.	.	.	16dd\JJ	16ff\JJ
!LO:TX:a:t=P:problem=mixed beam	!	!	!	!	!	!	!	!	!	!	!	!	!
!	!	!	!	!	!	!	!	!	!	!	!	!	!LO:LB;g=original
8G\L	.	.	.	.	.	.	.	.	.	.	.	8.g/L	8.dd\L
8GG/J	.	.	.	.	.	.	.	.	.	.	.	.	.
.	.	.	.	.	.	.	.	.	.	.	.	16f/Jk	16cc\Jk
=6	=6	=6	=6	=6	=6	=6	=6	=6	=6	=6-	=6	=6	=6
!LO:TX:b:t=Tutti.	!	!	!	!	!	!	!	!	!	!	!	!	!
8C/L	.	8cc\L	8.gg\L	8.c\	Do-	8.c\	Do-	8.g\	Do-	8.ee-\	Do-	4e-/	4cc\
8D/	.	8ee-\J	.	.	.	.	.	.	.	.	.	.	.
.	.	.	16gg\Jk	16c\	-mi-	16c\	-mi-	16g\	-mi-	16ee-\	-mi-	.	.
8E-/	.	4cc\	4gg\	4c\	-ne	4c\	-ne	4g\	-ne	4ee-\	-ne	4r	4r
8C/J	.	.	.	.	.	.	.	.	.	.	.	.	.
!	!	!	!	!	!	!	!	!	!	!	!	!LO:TX:a:t=P:problem=♮ above	!
*	*	*	*	*	*ij	*	*ij	*	*ij	*	*ij	*	*
8GG/L	.	8bn\L	8dd\L	8.Bn\	Do-	8.d\	Do-	8.g\	Do-	8.dd\	Do-	4bn\	4dd\
8AA/	.	8dd\J	8gg\J	.	.	.	.	.	.	.	.	.	.
.	.	.	.	16A\	-mi-	16c\	-mi-	16g\	-mi-	16dd\	-mi-	.	.
8BBn/	.	4b\	4dd\	4G\	-ne	4Bn\	-ne	4g\	-ne	4dd\	-ne	4r	4r
8GG/J	.	.	.	.	.	.	.	.	.	.	.	.	.
*	*	*	*	*	*Xij	*	*Xij	*	*Xij	*	*Xij	*	*
=7	=7	=7	=7	=7	=7	=7	=7	=7	=7	=7	=7	=7	=7
!LO:TX:a:t=P:problem=mixed beam	!	!	!	!	!	!	!	!	!	!	!	!	!
8C/L	.	8cc\L	8ee-\L	8c\	Je-	8c\	Je-	8g\	Je-	8ee-\	Je-	4cc\	4ee-\
8G\J	.	8cc\J	8ee-\	8B-\	-su	8c\	-su	8g\	-su	8dd\	-su	.	.
4A-X\	.	4cc\	8ee-\	4A-X\	chri-	4c\	chri-	4f#X\	chri-	4cc\	chri-	4r	4r
.	.	.	8ff#X\J	.	.	.	.	.	.	.	.	.	.
!	!	!	!	!	!	!	!	!	!	!LO:TX:a:t=P:problem=♮ above	!LO:LB;g=original	!LO:TX:a:t=P:problem=♮ above	!
4G\	.	4bn\	4gg\	4G\	-ste	4d\	-ste.	4g\	-ste	4bn\	-ste	4bn\	4dd\
!	!	!	!	!	!	!	!	!	!	!LO:LB:g=original	!	!	!
4BBn/	.	4r	4r	4r	.	4r	.	4r	.	4dd\	Rex	4r	4r
=8	=8	=8	=8	=8	=8	=8	=8	=8	=8	=8	=8	=8	=8
4C/	.	4r	4r	4r	.	4r	.	4r	.	8.gg\	glo-	4r	4r
.	.	.	.	.	.	.	.	.	.	16ff\	-ri-	.	.
!	!	!	!	!	!	!LO:LB;g=original	!	!	!	!	!	!	!
8r	.	8r	8r	8r	.	8r	.	8r	.	8ee-\	-a	8r	8r
!	!	!	!	!	!	!	!	!	!	!	!	!LO:TX:a:t=P:problem=♮ above	!
8G\	.	8bn\	8dd\	8G\	Rex	8Bn\	Rex	8g\	Rex	8dd\	Rex	8bn\	8dd\
!	!	!	!	!	!	!	!	!LO:LB;g=original	!	!	!	!	!
8c\L	.	8cc\L	8ee-\L	8.c\	glo-	8.c\	glo-	8.g\	glo-	8.ee-\	glo-	8cc\L	8ee-\L
8B-\	.	8cc\	8gg\	.	.	.	.	.	.	.	.	8cc\	8ee-\
.	.	.	.	16B-\	-ri-	16c\	-ri-	16g\	-ri-	16ee-\	-ri-	.	.
8A-X\	.	8cc\	8gg\	8A-X\	-a	8c\	-a	8g\	-a	8ee-\	-a	8cc\	8ee-\
*	*	*	*	*	*	*	*ij	*	*	*	*	*	*
8G\J	.	8dd\J	8gg\J	8G\	Rex	8d\	Rex	8g\	Rex	8dd\	Rex	8g\J	8dd\J
=9	=9	=9	=9	=9	=9	=9	=9	=9	=9	=9	=9	=9	=9
!	!	!	!	!	!	!	!	!LO:SIC:o:s:=:v: bemol na g za nisko	!	!	!	!	!
8F\L	.	8cc\L	8aa-X\L	8F\L	glo-	8c\L	glo-	4a-X\	glo-	8cc\L	glo-	8a-X/L	8cc\L
!	!	!	!	!	!	!LO:TX:a:t=C	!	!	!	!	!	!	!
16G\L	.	8cc\J	8aa-\J	16G\L	.	16d\L	.	.	.	(16dd\L	.	8a-/	16dd\L
!	!	!	!	!LO:SIC:s:=:v:A-	!	!	!	!	!	!	!	!	!
16A-X\JJ	.	.	.	16A\JJ	.	16e-\JJ	.	.	.	16cc\JJ)	.	.	16ee-\JJ
!LO:TX:a:t=P:problem=mixed beam	!	!	!	!	!	!LO:SIC:s:=:v:Bn	!	!	!	!	!	!	!
8G\L	.	4bn\	4gg\	8.G\	.	8.B-\	.	[8.g\	.	8.bn\	.	8g/	8.dd\L
8GG/J	.	.	.	.	.	.	.	.	.	.	.	8f/J	.
!	!	!	!	!	!	!LO:SIC:s:=:v:Bn	!	!	!	!	!	!	!
.	.	.	.	16G\	-ri-	16B-\	-ri-	16g\]	-ri-	16b\	-ri-	.	16cc\Jk
!	!	!	!	!	!	!	!	!	!	!	!	!LO:TX:a:t=P:problem=♭ below	!
4C/	.	4cc\	4gg\	4C/	-a	4c\	-a	4g\	-a	4cc\	-a	4e-X/	4cc\
!LO:TX:b:i:t=Solo C. libera	!	!	!	!	!	!	!	!	!	!	!	!	!
4r	.	4r	4r	4r	.	4r	.	4r	.	4r	.	4r	4r
*	*	*	*	*	*	*	*Xij	*	*	*	*	*	*
!	!	!	!	!LO:LB:g=original	!	!	!	!	!	!	!	!	!
=10	=10	=10	=10	=10	=10	=10	=10	=10	=10	=10	=10	=10	=10
!	!	!	!LO:TX:a:t=3	!LO:TX:a:t=3	!	!LO:TX:a:t=3	!	!	!	!	!	!	!
4C/	.	0r	0r	0r	.	0r	.	0r	.	16cc\LL	Li-	0r	0r
.	.	.	.	.	.	.	.	.	.	16dd\	.	.	.
.	.	.	.	.	.	.	.	.	.	16ee-\	.	.	.
.	.	.	.	.	.	.	.	.	.	16ff\JJ	.	.	.
8r	.	.	.	.	.	.	.	.	.	8gg\L	.	.	.
8BB-/	.	.	.	.	.	.	.	.	.	16ff\L	.	.	.
.	.	.	.	.	.	.	.	.	.	16gg\JJ	.	.	.
2C/	.	.	.	.	.	.	.	.	.	8.ee-\	.	.	.
.	.	.	.	.	.	.	.	.	.	16dd\	-be-	.	.
.	.	.	.	.	.	.	.	.	.	4cc\	-ra	.	.
!LO:LB;g=original	!	!	!	!	!	!	!	!	!	!	!	!	!
=11	=11	=11	=11	=11	=11	=11	=11	=11	=11	=11	=11	=11	=11
4G\	.	.	.	.	.	.	.	.	.	16g\LL	li-	.	.
.	.	.	.	.	.	.	.	.	.	16a\	.	.	.
.	.	.	.	.	.	.	.	.	.	16b-\	.	.	.
.	.	.	.	.	.	.	.	.	.	16cc\JJ	.	.	.
4F#X\	6	.	.	.	.	.	.	.	.	8dd\L	.	.	.
.	.	.	.	.	.	.	.	.	.	16cc\L	.	.	.
.	.	.	.	.	.	.	.	.	.	16dd\JJ	.	.	.
2G\	.	.	.	.	.	.	.	.	.	8.b-\	.	.	.
.	.	.	.	.	.	.	.	.	.	16a\	-be-	.	.
.	.	.	.	.	.	.	.	.	.	4g/	-ra	.	.
=12	=12	=12	=12	=12	=12	=12	=12	=12-	=12	=12	=12	=12	=12
8D\L	.	1r	1r	1r	.	1r	.	1r	.	8.a\	a-	1r	1r
8En\	.	.	.	.	.	.	.	.	.	.	.	.	.
.	.	.	.	.	.	.	.	.	.	16a\	-ni-	.	.
!	!	!	!	!	!	!	!	!	!	!LO:LB:g=original	!	!	!
8F#X\	6	.	.	.	.	.	.	.	.	4a\	-mas	.	.
8D\J	.	.	.	.	.	.	.	.	.	.	.	.	.
4G\	.	.	.	.	.	.	.	.	.	8.dd\	om-	.	.
.	.	.	.	.	.	.	.	.	.	16ee-\	-ni-	.	.
!LO:TX:b:t=Tutti	!	!	!	!	!	!	!	!	!	!	!	!	!
4r	.	.	.	.	.	.	.	.	.	8dd\	-um	.	.
.	.	.	.	.	.	.	.	.	.	8cc\	fi-	.	.
=13	=13	=13	=13-	=13	=13	=13	=13	=13	=13	=13	=13	=13	=13
8G\L	.	4dd\	4gg\	8G\	om-	8B-\	om-	8g\	om-	8.b-\	-de-	4b-\	4dd\
8F\	.	.	.	8F\	-ni-	8B-\	-ni-	8g\	-ni-	.	.	.	.
.	.	.	.	.	.	.	.	.	.	16a\	-li-	.	.
8E-\	.	4r	4r	8E-\	-um	8B-\	-um	8g\	-um	4g/	-bus	4r	4r
8D\J	.	.	.	8D\	fi-	8B-\	fi-	8g\	fi-	.	.	.	.
4C/	.	8dd\L	8gg\L	8.C/	-de-	8.c\	-de-	8.g\	-de-	8.cc\	om-	8ee-\L	8gg\L
.	.	8dd\	8gg\	.	.	.	.	.	.	.	.	8ee-\	8gg\
.	.	.	.	16C/	-li-	16c\	-li-	16g\	-li-	16dd\	-ni-	.	.
4r	.	8dd\	8gg\	4C/	-u(m)	4c\	-um	4g\	-um	8cc\	-u(m)	8ee-\	8gg\
.	.	8dd\J	8gg\J	.	.	.	.	.	.	8b-\	fi-	8ee-\J	8gg\J
=14	=14	=14	=14	=14	=14	=14	=14	=14	=14	=14	=14	=14	=14
*	*	*	*	*	*ij	*	*ij	*	*ij	*	*	*	*
8F\L	.	4a/	4cc\	8F\	om-	8A\	om-	8f\	om-	8.a\	-de-	4a\	4cc\
8E-\	.	.	.	8E-\	-ni-	8A\	-ni-	8f\	-ni-	.	.	.	.
.	.	.	.	.	.	.	.	.	.	16g\	-li-	.	.
8D\	.	4r	4r	8D\	-um	8A\	-um	8f\	-um	4f/	-um	4r	4r
8C\J	.	.	.	8C/	fi-	8A\	fi-	8f\	fi-	.	.	.	.
8BB-/L	.	8dd\L	8ff\L	8.BB-/	-de-	8.B-\	-de-	8.f\	-de-	[[2b-\	de-	8dd\L	8ff\L
8C/	.	8dd\	8ff\	.	.	.	.	.	.	.	.	8dd\	8ff\
.	.	.	.	16BB-/	-li-	16B-\	-li-	16f\	-li-	.	.	.	.
8D/	.	8dd\	8ff\	4BB-/	-u(m)	4B-\	-um	4f\	-um	.	.	8dd\	8ff\
8BB-/J	.	8dd\J	8ff\J	.	.	.	.	.	.	.	.	8dd\J	8ff\J
*	*	*	*	*	*Xij	*	*Xij	*	*Xij	*	*	*	*
!	!	!LO:LB;g=original	!	!	!	!	!	!	!	!	!	!	!LO:PB:g=original
=15	=15	=15	=15	=15	=15	=15	=15	=15	=15	=15	=15	=15	=15
!	!	!	!	!	!	!	!	!	!	!LO:N:xstem:cue	!	!	!
8E-/L	.	8ee-\L	8gg\L	8E-\	de-	8B-\	de-	8g\	de-	8b-\]]	.	8b-\L	16ee-\LL
.	.	.	.	.	.	.	.	.	.	.	.	.	16ff\
8C/	.	8ee-\	8gg\	8C/	-fun-	8c\	-fun-	8g\	-fun-	8ee-\	-fun-	8cc\J	16dd\
.	.	.	.	.	.	.	.	.	.	.	.	.	16ee-\JJ
!	!	!	!	!	!	!LO:LB:g=original	!	!	!	!	!	!	!
8F/	.	8cc\	8aa\	4F\	-cto-	4A\	-cto-	4f\	-cto-	4cc\	-cto-	8.f/L	8.cc\L
8FF/J	4	8cc\J	8aa\J	.	.	.	.	.	.	.	.	.	.
.	3	.	.	.	.	.	.	.	.	.	.	16e-/Jk	16b-\Jk
8BB-/	.	4dd\	8bb-\	8BB-/	-rum	8B-\	-rum	8f\	-rum	8b-\	-ru(m)	8d/	8b-\
8r	.	.	8r	8r	.	8r	.	8r	.	16dd\	om-	8r	8r
.	.	.	.	.	.	.	.	.	.	16ee-\	-ni-	.	.
4r	.	4r	4r	4r	.	4r	.	4r	.	8dd\	-um	4r	4r
.	.	.	.	.	.	.	.	.	.	8cc\	fi-	.	.
!	!	!	!LO:PB;g=original	!	!	!	!	!LO:LB:g=original	!	!	!	!	!
=16	=16	=16	=16	=16	=16	=16	=16	=16	=16	=16	=16	=16	=16
8G\L	.	4dd\	4gg\	8G\	om-	8.B-\	om-	8g\	om-	8.b-\	-de-	4b-\	4dd\
8F\	.	.	.	8F\	-ni-	.	.	8g\	-ni-	.	.	.	.
.	.	.	.	.	.	16B-\	-ni-	.	.	16a\	-li-	.	.
8E-\	.	4r	4r	8E-\	-um	8B-\	-um	8g\	-um	4g/	-um	4r	4r
8D\J	.	.	.	8D\	fi-	8B-\	fi-	8g\	fi-	.	.	.	.
4C/	.	8ee-\L	8gg\L	8.C/	-de-	8.c\	-de-	8.g\	-de-	2r	.	8ee-\L	8gg\L
.	.	8ee-\	8gg\	.	.	.	.	.	.	.	.	8ee-\	8gg\
.	.	.	.	16C/	-li-	16c\	-li-	16g\	-li-	.	.	.	.
4r	.	8ee-\	8gg\	4C/	-um	4c\	-um	4g\	-um	.	.	8ee-\	8gg\
.	.	8ee-\J	8gg\J	.	.	.	.	.	.	.	.	8ee-\J	8gg\J
!	!	!	!	!LO:LB:g=original	!	!	!	!	!	!	!	!LO:LB:g=original	!
=17	=17	=17	=17	=17	=17	=17	=17	=17	=17	=17	=17	=17	=17
8D/L	.	8dd\L	8aa\L	8D/	De-	8A\	de-	8an\	de-	8dd\	de-	8dd\L	16aa\LL
.	.	.	.	.	.	.	.	.	.	.	.	.	16bb-\
8C/	.	8ee-\J	8gg\J	8C/	-fun-	(16B-\LL	-fun-	8a\	-fun-	8ee-\	-fun-	8ee-\	16gg\
.	.	.	.	.	.	16c\JJ)	.	.	.	.	.	.	16aa\JJ
8D/	.	4dd\	4ff#X\	4D/	-cto-	4d\	-cto-	4a\	-cto-	4a\	-cto-	8a\	8.ff#X\L
8DD/J	.	.	.	.	.	.	.	.	.	.	.	8a\J	.
.	.	.	.	.	.	.	.	.	.	.	.	.	16ff#\Jk
!	!	!	!	!	!	!	!	!	!	!LO:LB:g=original	!	!	!
4GG/	.	4dd\	4gg\	8GG/	-ru(m)	4d\	-ru(m)	4g\	-rum	4g/	-rum	4b-\	4gg\
.	.	.	.	8r	.	.	.	.	.	.	.	.	.
!LO:TX:b:t=Solo	!	!	!	!	!	!	!	!	!	!	!	!	!
4r	.	4r	4r	4r	.	4r	.	4r	.	4r	.	4r	4r
!LO:LB;g=original	!	!	!	!	!	!	!	!	!	!	!	!	!
=18	=18	=18	=18	=18	=18	=18	=18	=18	=18	=18	=18	=18	=18
!	!	!	!LO:TX:a:t=3	!	!	!LO:TX:a:t=6	!	!	!	!LO:TX:rj:a:t=Solo	!	!LO:TX:a:t=5	!
4C/	.	0r	0r	00r	.	00r	.	00r	.	8cc\L	de	00r	00r
.	.	.	.	.	.	.	.	.	.	16dd\L	.	.	.
.	.	.	.	.	.	.	.	.	.	16cc\JJ	.	.	.
4r	.	.	.	.	.	.	.	.	.	4bn\	poe-	.	.
8r	.	.	.	.	.	.	.	.	.	4cc\	-nis	.	.
8E-\L	6	.	.	.	.	.	.	.	.	.	.	.	.
8F\	.	.	.	.	.	.	.	.	.	4r	.	.	.
8G\J	.	.	.	.	.	.	.	.	.	.	.	.	.
=19	=19	=19	=19	=19	=19	=19	=19	=19	=19	=19	=19	=19	=19
4C/	.	.	.	.	.	.	.	.	.	8cc\L	in	.	.
.	.	.	.	.	.	.	.	.	.	(16dd\L	.	.	.
.	.	.	.	.	.	.	.	.	.	16cc\JJ)	.	.	.
4r	.	.	.	.	.	.	.	.	.	4bn\	fer-	.	.
8r	.	.	.	.	.	.	.	.	.	4cc\	-nis	.	.
8E-\L	6	.	.	.	.	.	.	.	.	.	.	.	.
8F\	.	.	.	.	.	.	.	.	.	4r	.	.	.
8G\J	.	.	.	.	.	.	.	.	.	.	.	.	.
=20	=20	=20	=20	=20	=20	=20	=20	=20	=20	=20	=20	=20	=20
4C/	.	1r	1r	.	.	.	.	.	.	8r	.	.	.
.	.	.	.	.	.	.	.	.	.	8ee-\	et	.	.
8BB-/L	.	.	.	.	.	.	.	.	.	8dd\	de	.	.
8AA/J	.	.	.	.	.	.	.	.	.	8cc\	pro-	.	.
4GG/	.	.	.	.	.	.	.	.	.	16b-\LL	-fun-	.	.
.	.	.	.	.	.	.	.	.	.	16cc\JJ	.	.	.
.	.	.	.	.	.	.	.	.	.	16dd\LL	-do	.	.
.	.	.	.	.	.	.	.	.	.	16ee-\JJ	.	.	.
4D\	4	.	.	.	.	.	.	.	.	4a\	la-	.	.
.	3	.	.	.	.	.	.	.	.	.	.	.	.
=21	=21	=21	=21	=21	=21	=21	=21	=21	=21	=21	=21	=21	=21
8GG/L	.	8r	8r	.	.	.	.	.	.	8g/	-cu	.	.
8C/	.	8cc\L	8ee-\L	.	.	.	.	.	.	8r	.	.	.
8BB-/	.	8b-\	8dd\	.	.	.	.	.	.	4r	.	.	.
8AA/J	.	8a\J	8cc\J	.	.	.	.	.	.	.	.	.	.
4GG/	.	8g/L	16b-\LL	.	.	.	.	.	.	2r	.	.	.
.	.	.	16cc\	.	.	.	.	.	.	.	.	.	.
.	.	16a/L	16dd\	.	.	.	.	.	.	.	.	.	.
.	.	16g/JJ	16ee-\JJ	.	.	.	.	.	.	.	.	.	.
4D\	4	8f#X/L	8.a/L	.	.	.	.	.	.	.	.	.	.
.	3	8f#/J	.	.	.	.	.	.	.	.	.	.	.
.	.	.	16g/Jk	.	.	.	.	.	.	.	.	.	.
=22	=22	=22	=22	=22	=22	=22	=22	=22	=22	=22	=22	=22	=22
8C/L	.	4g/	4g/	0r	.	0r	.	0r	.	8r	.	1r	1r
8E-/	.	.	.	.	.	.	.	.	.	8gg\	et	.	.
8D/	.	4r	4r	.	.	.	.	.	.	8ff\	de	.	.
8C/J	.	.	.	.	.	.	.	.	.	8ee-\	pro-	.	.
!LO:TX:a:t=P:problem=mixed beam	!	!	!	!	!	!	!	!	!	!	!	!	!
8BBn/L	6	2r	2r	.	.	.	.	.	.	16dd\LL	-fun-	.	.
.	.	.	.	.	.	.	.	.	.	16ee-\JJ	.	.	.
8D/	.	.	.	.	.	.	.	.	.	16ff\LL	-do	.	.
.	.	.	.	.	.	.	.	.	.	16gg\JJ	.	.	.
8G\	4	.	.	.	.	.	.	.	.	4dd\	la-	.	.
8GG/J	3	.	.	.	.	.	.	.	.	.	.	.	.
=23	=23	=23	=23	=23	=23	=23	=23	=23	=23	=23	=23	=23	=23
!	!	!	!LO:TX:a:t=3	!	!	!	!	!	!	!	!	!	!
2C/	.	0r	0r	.	.	.	.	.	.	4cc\	-cu	8r	8r
.	.	.	.	.	.	.	.	.	.	.	.	8ee-\L	8gg\L
.	.	.	.	.	.	.	.	.	.	4r	.	8dd\	8ff\
.	.	.	.	.	.	.	.	.	.	.	.	8cc\J	8ee-\J
!	!	!	!	!	!	!	!	!	!	!LO:LB:g=original	!	!	!
!LO:TX:a:t=P:problem=mixed beam	!	!	!	!	!	!	!	!	!	!	!	!LO:TX:a:t=P:problem=♮ above	!
8G\L	.	.	.	.	.	.	.	.	.	2r	.	8bn\L	16dd\LL
.	.	.	.	.	.	.	.	.	.	.	.	.	16ee-\
8F\	.	.	.	.	.	.	.	.	.	.	.	8cc\J	16ff\
.	.	.	.	.	.	.	.	.	.	.	.	.	16gg\JJ
!	!	!	!	!	!	!	!	!	!	!	!	!	!LO:SIC:o:s:=:v:tryl albo mordent
8G\	.	.	.	.	.	.	.	.	.	.	.	8.g/L	8.ddt\L
8GG/J	.	.	.	.	.	.	.	.	.	.	.	.	.
.	.	.	.	.	.	.	.	.	.	.	.	16f/Jk	16cc\Jk
=24	=24	=24	=24	=24	=24	=24	=24	=24	=24	=24	=24	=24	=24
!LO:TX:b:t=Tutti	!	!	!	!	!	!	!	!	!	!	!	!	!
4C/	.	.	.	2r	.	16e-\LL	Li-	16g\LL	Li-	00r	.	4e-X/	4cc\
.	.	.	.	.	.	16d\	.	16f\	.	.	.	.	.
.	.	.	.	.	.	16e-\	.	16g\	.	.	.	.	.
.	.	.	.	.	.	16f\JJ	.	16a-X\JJ	.	.	.	.	.
4r	.	.	.	.	.	16e-\LL	.	16g\LL	.	.	.	4r	4r
.	.	.	.	.	.	16f\	.	16a-X\	.	.	.	.	.
.	.	.	.	.	.	16e-\	.	16g\	.	.	.	.	.
.	.	.	.	.	.	16d\JJ	.	16f\JJ	.	.	.	.	.
4C/	.	.	.	8c\L	Li-	8.c\	.	8.e-\	.	.	.	2r	2r
.	.	.	.	16d\L	.	.	.	.	.	.	.	.	.
.	.	.	.	16c\JJ	.	16c\	-be-	16e-\	-be-	.	.	.	.
4G\	.	.	.	8Bn\L	.	4Bn\	-ra	4d\	-ra	.	.	.	.
.	.	.	.	16c\L	.	.	.	.	.	.	.	.	.
.	.	.	.	16B\JJ	.	.	.	.	.	.	.	.	.
=25	=25	=25	=25	=25	=25	=25	=25	=25	=25	=25	=25	=25	=25
8C/L	.	1r	1r	8.c\	.	8.e-\	li-	8.g\	li-	.	.	1r	1r
8D/	.	.	.	.	.	.	.	.	.	.	.	.	.
.	.	.	.	16c\	-be-	16e-\	-be-	16g\	-be-	.	.	.	.
8E-/	.	.	.	4c\	-ra	4e-\	-ra	4g\	-ra	.	.	.	.
8C/J	.	.	.	.	.	.	.	.	.	.	.	.	.
8G\L	.	.	.	4Bn\	e-	4d\	e-	4g\	e-	.	.	.	.
8A\	.	.	.	.	.	.	.	.	.	.	.	.	.
!	!	!	!	!	!	!LO:LB:g=original	!	!	!	!	!	!	!
8Bn\	6	.	.	8B\	-as	8d\	-as	8g\	-as	.	.	.	.
8G\J	.	.	.	8G\	de	8d\	de	8g\	de	.	.	.	.
!LO:LB;g=original	!	!	!	!	!	!	!	!	!	!	!	!	!
=26	=26	=26	=26	=26	=26	=26	=26	=26	=26	=26	=26	=26	=26-
!LO:TX:a:t=P:problem=mixed beam	!	!	!	!	!	!	!	!	!	!	!	!	!
8c\L	.	2r	2r	4c\	o-	4e-\	o-	4g\	o-	.	.	2r	2r
8C/	.	.	.	.	.	.	.	.	.	.	.	.	.
8E-/	.	.	.	8c\	-re	8e-\	-re	8g\	-re	.	.	.	.
!	!	!	!	!	!	!	!	!LO:LB:g=original	!	!	!	!	!
8C/J	.	.	.	8c\	le-	8e-\	le-	8g\	le-	.	.	.	.
!LO:TX:a:t=P:problem=mixed beam	!	!	!	!	!	!	!	!	!	!	!	!	!
8G\L	.	4r	4r	4Bn\	-o-	4d\	-o-	4g\	-o-	.	.	4r	4r
8GG/	.	.	.	.	.	.	.	.	.	.	.	.	.
8BBn/	6	8r	8r	4G\	-nis	4d\	-nis	4g\	-nis	.	.	8r	8r
!	!	!	!	!	!	!	!	!	!	!	!	!LO:TX:a:t=P:problem=♮ above	!
8GG/J	.	8dd\	8gg\	.	.	.	.	.	.	.	.	8bn\	8dd\
=27	=27	=27	=27	=27	=27	=27	=27	=27	=27	=27	=27	=27	=27
8C/L	.	8ee-\L	8gg\L	2r	.	2r	.	2r	.	.	.	8cc\L	8ee-\L
8D/	.	8cc\	8gg\	.	.	.	.	.	.	.	.	8cc\	8ee-\
8E-/	.	8ee-\	8gg\	.	.	.	.	.	.	.	.	8cc\	8ee-\
8C/J	.	8cc\J	8gg\J	.	.	.	.	.	.	.	.	8cc\J	8ee-\J
!	!	!LO:LB;g=original	!	!	!	!	!	!	!	!	!	!	!LO:LB:g=original
8G\L	.	4dd\	4gg\	4r	.	4r	.	4r	.	.	.	4bn\	4dd\
8A\	.	.	.	.	.	.	.	.	.	.	.	.	.
!	!	!LO:TX:a:t=P:problem=♮ above	!	!	!	!	!	!	!	!	!	!	!
8Bn\	6	8bn\	8gg\	8G\	ne	8d\	ne	8g\	ne	.	.	8b\	8dd\
8G\J	.	8r	8r	8G\	ab-	8d\	ab-	8g\	ab-	.	.	8r	8r
=28	=28	=28	=28	=28	=28	=28	=28	=28	=28	=28	=28	=28	=28
!LO:TX:a:t=P:problem=mixed beam	!	!	!LO:TX:a:t=5	!	!	!	!	!	!	!	!	!	!
8c\L	.	00r	00r	8.c\	-sor-	8.e-\	-sor-	8.g\	-sor-	00r	.	00r	0r
8C/	.	.	.	.	.	.	.	.	.	.	.	.	.
.	.	.	.	16c\	-be-	16e-\	-be-	16g\	-be-	.	.	.	.
8E-/	.	.	.	4c\	-at	4e-\	-at	4g\	-at	.	.	.	.
8C/J	.	.	.	.	.	.	.	.	.	.	.	.	.
!	!	!	!	!LO:LB:g=original	!	!	!	!	!	!	!	!	!
!	!	!	!	!LO:N:vis=8	!	!	!	!	!	!	!	!	!
4.GG/	.	.	.	8.Bn\	tar-	8.d\	tar-	8.g\	tar-	.	.	.	.
.	.	.	.	16A\	-ta-	16d\	-ta-	16g\	-ta-	.	.	.	.
.	.	.	.	8G\	-rus	8d\	-rus	8g\	-rus	.	.	.	.
8C/	.	.	.	8C/	ne	8e-\	ne	8g\	ne	.	.	.	.
=29	=29	=29	=29	=29	=29	=29	=29	=29	=29	=29	=29	=29	=29
8F\L	.	.	.	8F\	cean-	8c\	ce-	8a-X\	ce-	.	.	.	.
8G\	.	.	.	8G\	-dat	8c\	-dant	8a-\	-dant	.	.	.	.
8A-X\	.	.	.	8A-X\	in	8c\	in	8a-X\	in	.	.	.	.
8F\J	.	.	.	8F\	ob-	8c\	ob-	8a-\	ob-	.	.	.	.
!LO:TX:a:t=P:problem=mixed beam	!	!	!	!LO:TX:a:t=P:problem=mixed beam	!	!	!	!	!	!	!	!	!
8G\L	.	.	.	8G\L	-ſcu-	(8d\L	-scu-	2g\	-scu-	.	.	.	.
8F\	.	.	.	8F\	.	16e-\L	.	.	.	.	.	.	.
.	.	.	.	.	.	16f\JJ)	.	.	.	.	.	.	.
8G\	.	.	.	8G\	.	4Bn\	.	.	.	.	.	.	.
8GG/J	4	.	.	8GG/J	.	.	.	.	.	.	.	.	.
.	3	.	.	.	.	.	.	.	.	.	.	.	.
=30	=30	=30	=30	=30	=30	=30	=30	=30	=30	=30	=30	=30	=30
8C/L	.	.	.	4C/	-rum	4c\	-ru(m)	4g\	-rum	.	.	.	1r
8D/	.	.	.	.	.	.	.	.	.	.	.	.	.
8E-/	.	.	.	8r	.	8r	.	8r	.	.	.	.	.
!	!	!	!	!	!	!LO:LB:g=original	!	!	!	!	!	!	!
8C/J	.	.	.	8C/	ne	8e-\	ne	8g\	ne	.	.	.	.
8F\L	.	.	.	8F\	ce-	8c\	ce-	8a-X\	ce-	.	.	.	.
8G\	.	.	.	8G\	-dant	8c\	-dant	8a-\	-dant	.	.	.	.
!	!	!	!	!LO:SIC:s:=:v:A-	!	!	!	!	!	!	!	!	!
8A-X\	.	.	.	8A\	in	8c\	in	8a-X\	in	.	.	.	.
8F\J	.	.	.	8F\	ob-	8c\	ob-	8a-\	ob-	.	.	.	.
=31	=31	=31	=31	=31	=31	=31	=31	=31	=31	=31	=31	=31	=31
!LO:TX:a:t=P:problem=mixed beam	!	!	!	!LO:TX:a:t=P:problem=mixed beam	!	!	!	!	!	!	!	!	!
8G\L	.	.	.	8G\L	-ſcu-	8d\L	-scu-	2g\	-scu-	.	.	.	2r
8F\	.	.	.	8F\	.	(16e-\L	.	.	.	.	.	.	.
.	.	.	.	.	.	16f\JJ)	.	.	.	.	.	.	.
8G\	.	.	.	8G\	.	4Bn\	.	.	.	.	.	.	.
8GG/J	4	.	.	8GG/J	rum	.	.	.	.	.	.	.	.
.	3	.	.	.	.	.	.	.	.	.	.	.	.
!	!	!	!	!	!	!	!	!LO:LB:g=original	!	!	!	!	!
!LO:TX:b:t=Solo	!	!	!	!	!	!	!	!	!	!	!	!	!
8C/L	.	.	.	4ryy	.	4c\	-ru(m)	4g\	-rum	.	.	.	4r
8D/	.	.	.	.	.	.	.	.	.	.	.	.	.
8E-/	.	.	.	4r	.	4r	.	4r	.	.	.	.	8r
8BBn/J	6	.	.	.	.	.	.	.	.	.	.	.	8g/
!LO:LB;g=original	!	!	!	!	!	!	!	!	!	!	!	!	!
=32	=32	=32	=32	=32	=32	=32	=32	=32	=32	=32	=32	=32-	=32
!LO:TX:a:t=P:problem=mixed beam	!	!	!	!	!	!	!	!	!	!	!	!	!
8C/L	.	0r	1r	00r	.	00r	.	00r	.	0r	.	4r	8cc\L
8c\	.	.	.	.	.	.	.	.	.	.	.	.	(16bn\L
.	.	.	.	.	.	.	.	.	.	.	.	.	16cc\JJ)
8Bn\	6	.	.	.	.	.	.	.	.	.	.	8r	8dd\L
8G\J	.	.	.	.	.	.	.	.	.	.	.	8g/	(16cc\L
.	.	.	.	.	.	.	.	.	.	.	.	.	16dd\JJ)
4C/	.	.	.	.	.	.	.	.	.	.	.	(8cc\L	8ee-\L
!	!	!	!	!	!	!	!	!	!	!	!	!LO:TX:a:t=P:problem=♮ above	!
.	.	.	.	.	.	.	.	.	.	.	.	16bn\L	(16dd\L
.	.	.	.	.	.	.	.	.	.	.	.	16cc\JJ)	16ee-\JJ)
4r	.	.	.	.	.	.	.	.	.	.	.	(8dd\L	8ff\L
.	.	.	.	.	.	.	.	.	.	.	.	16cc\L	(16ee-\L
.	.	.	.	.	.	.	.	.	.	.	.	16dd\JJ)	16ff\JJ)
!	!	!	!	!	!	!	!	!	!	!	!	!LO:LB;g=original	!
=33	=33	=33	=33	=33	=33	=33	=33	=33	=33	=33	=33	=33	=33
4C/	.	.	2r	.	.	.	.	.	.	.	.	8ee-\L	8gg\L
.	.	.	.	.	.	.	.	.	.	.	.	16dd\L	16ff\L
.	.	.	.	.	.	.	.	.	.	.	.	16cc\JJ	16ee-\JJ
!	!	!	!	!	!	!	!	!	!	!	!	!	!LO:SIC:o:s:=:v:tryl albo mordent
4G\	4	.	.	.	.	.	.	.	.	.	.	8.bn\L	8.ddt\L
.	3	.	.	.	.	.	.	.	.	.	.	16b\Jk	16cc\Jk
!LO:TX:a:t=P:problem=mixed beam	!	!	!	!	!	!	!	!	!	!	!	!	!
8C/L	.	.	4r	.	.	.	.	.	.	.	.	4cc\	4cc\
16G\L	.	.	.	.	.	.	.	.	.	.	.	.	.
16A\JJ	.	.	.	.	.	.	.	.	.	.	.	.	.
8B-X\L	.	.	8r	.	.	.	.	.	.	.	.	4r	4r
8F#X\J	6	.	8d/	.	.	.	.	.	.	.	.	.	.
!	!	!	!LO:LB;g=original	!	!	!	!	!	!	!	!	!	!
=34	=34	=34-	=34	=34	=34	=34	=34	=34	=34	=34	=34	=34	=34
4G\	.	4r	8g/L	.	.	.	.	.	.	1r	.	00r	00r
.	.	.	16f#X/L	.	.	.	.	.	.	.	.	.	.
.	.	.	16g/JJ	.	.	.	.	.	.	.	.	.	.
4F#X\	6	8r	8a/L	.	.	.	.	.	.	.	.	.	.
.	.	8d/	16g/L	.	.	.	.	.	.	.	.	.	.
.	.	.	16a/JJ	.	.	.	.	.	.	.	.	.	.
4G\	.	8g/L	8b-\L	.	.	.	.	.	.	.	.	.	.
!	!	!LO:TX::t=P:problem= # below	!	!	!	!	!	!	!	!	!	!	!
.	.	16f#X/L	16a\L	.	.	.	.	.	.	.	.	.	.
.	.	16g/JJ	16b-\JJ	.	.	.	.	.	.	.	.	.	.
4r	.	8a/L	8cc\L	.	.	.	.	.	.	.	.	.	.
.	.	16g/L	16b-\L	.	.	.	.	.	.	.	.	.	.
.	.	16a/JJ	16cc\JJ	.	.	.	.	.	.	.	.	.	.
=35	=35	=35	=35	=35	=35	=35	=35	=35	=35	=35	=35	=35	=35
4GG/	.	16b-/LL	16dd\LL	.	.	.	.	.	.	2r	.	.	.
.	.	16a/	16cc\	.	.	.	.	.	.	.	.	.	.
.	.	16g/	16b-\	.	.	.	.	.	.	.	.	.	.
.	.	16a/JJ	16cc\JJ	.	.	.	.	.	.	.	.	.	.
4D/	4	8f#X/L	8.a/L	.	.	.	.	.	.	.	.	.	.
.	3	8f#/J	.	.	.	.	.	.	.	.	.	.	.
.	.	.	16g/Jk	.	.	.	.	.	.	.	.	.	.
4G\	.	4g/	4g/	.	.	.	.	.	.	4r	.	.	.
4F#X\	6	4r	4r	.	.	.	.	.	.	4dd\	Sed	.	.
=36	=36	=36	=36	=36	=36	=36	=36	=36	=36	=36	=36	=36	=36
!	!	!	!LO:TX:a:t=4	!	!	!	!	!	!	!	!	!	!
4G\	.	00r	00r	00r	.	00r	.	00r	.	8.b-\	Sig-	.	.
.	.	.	.	.	.	.	.	.	.	16a\	-ni-	.	.
8r	.	.	.	.	.	.	.	.	.	4g/	-fer	.	.
16G\LL	.	.	.	.	.	.	.	.	.	.	.	.	.
16A\JJ	.	.	.	.	.	.	.	.	.	.	.	.	.
!LO:TX:a:t=P:problem=mixed beam	!	!	!	!	!	!	!	!	!	!	!	!	!
8B-\L	.	.	.	.	.	.	.	.	.	2r	.	.	.
8c\	.	.	.	.	.	.	.	.	.	.	.	.	.
8d\	.	.	.	.	.	.	.	.	.	.	.	.	.
8D/J	4	.	.	.	.	.	.	.	.	.	.	.	.
.	3	.	.	.	.	.	.	.	.	.	.	.	.
=37	=37	=37	=37	=37	=37	=37	=37	=37	=37	=37	=37	=37	=37
4G\	.	.	.	.	.	.	.	.	.	4r	.	.	.
*	*	*	*	*	*	*	*	*	*	*	*ij	*	*
4F#X\	6	.	.	.	.	.	.	.	.	4dd\	Sed	.	.
!LO:TX:a:t=P:problem=mixed beam	!	!	!	!	!	!	!	!	!	!	!	!	!
8G\L	.	.	.	.	.	.	.	.	.	8.b-\	Sig-	.	.
16GG/L	.	.	.	.	.	.	.	.	.	.	.	.	.
16AA/JJ	.	.	.	.	.	.	.	.	.	16a\	-ni-	.	.
8BB-/L	.	.	.	.	.	.	.	.	.	4g/	-fer	.	.
8GG/J	.	.	.	.	.	.	.	.	.	.	.	.	.
*	*	*	*	*	*	*	*	*	*	*	*Xij	*	*
=38	=38	=38	=38	=38	=38	=38	=38	=38	=38	=38	=38	=38	=38
8D/L	.	.	.	.	.	.	.	.	.	(16a\LL	San-	00r	00r
.	.	.	.	.	.	.	.	.	.	16b-\JJ)	.	.	.
8C/	.	.	.	.	.	.	.	.	.	(16cc\LL	-ctus	.	.
.	.	.	.	.	.	.	.	.	.	16dd\JJ)	.	.	.
8D/	.	.	.	.	.	.	.	.	.	8.a\	Mi-	.	.
8DD/J	4	.	.	.	.	.	.	.	.	.	.	.	.
.	3	.	.	.	.	.	.	.	.	16g/	-cha-	.	.
8GG/L	.	.	.	.	.	.	.	.	.	8g/	-el	.	.
16BB-/L	.	.	.	.	.	.	.	.	.	16dd\	re-	.	.
16C/JJ	.	.	.	.	.	.	.	.	.	16ee-\	-prae-	.	.
8D/L	.	.	.	.	.	.	.	.	.	8ff\	-sen-	.	.
8BB-/J	.	.	.	.	.	.	.	.	.	8dd\	-tet	.	.
!LO:TX:b:t=Citissime verte	!	!	!	!	!	!	!	!	!	!	!	!	!
!LO:PB:g=original	!	!	!	!	!	!	!	!	!	!	!	!	!
=39	=39	=39	=39	=39	=39	=39	=39	=39	=39	=39	=39	=39	=39
8E-/L	.	.	.	.	.	.	.	.	.	4gg\	eas	.	.
8D/	4	.	.	.	.	.	.	.	.	.	.	.	.
8C/	5_	.	.	.	.	.	.	.	.	8gg\	in	.	.
8BB-/J	.	.	.	.	.	.	.	.	.	8ff\	lu-	.	.
8C\L	x	.	.	.	.	.	.	.	.	(16ee-\LL	-ce-	.	.
.	.	.	.	.	.	.	.	.	.	16ff\JJ)	.	.	.
!	!	!	!	!	!	!	!	!	!	!LO:LB;g=original	!	!	!
16D\L	.	.	.	.	.	.	.	.	.	(16dd\LL	-ra	.	.
16E-\J	.	.	.	.	.	.	.	.	.	16ee-\JJ)	.	.	.
!LO:TX:a:t=P:problem=mixed beam	!	!	!	!	!	!	!	!	!	!	!	!	!
8F\	.	.	.	.	.	.	.	.	.	4cc\	San-	.	.
8FF/J	4	.	.	.	.	.	.	.	.	.	.	.	.
.	3	.	.	.	.	.	.	.	.	.	.	.	.
=40	=40	=40-	=40-	=40	=40	=40	=40	=40	=40	=40	=40	=40	=40
4BB-/	.	8r	8r	00r	.	00r	.	00r	.	4b-\	-ctam	.	.
.	.	16b-\LL	16dd\LL	.	.	.	.	.	.	.	.	.	.
.	.	16cc\JJ	16ee-\JJ	.	.	.	.	.	.	.	.	.	.
8r	.	8dd\L	8ff\L	.	.	.	.	.	.	4r	.	.	.
8BB-/	.	8b-\J	8dd\J	.	.	.	.	.	.	.	.	.	.
4E-\	.	16ee-\LL	16gg\LL	.	.	.	.	.	.	2r	.	.	.
.	.	16dd\	16ff\	.	.	.	.	.	.	.	.	.	.
.	.	16ee-\	16gg\	.	.	.	.	.	.	.	.	.	.
!	!	!	!LO:TX:a:t=P:problem=♭ above	!	!	!	!	!	!	!	!	!	!
.	.	16ff\JJ	16aa-X\JJ	.	.	.	.	.	.	.	.	.	.
8r	.	8ee-\L	8gg\L	.	.	.	.	.	.	.	.	.	.
8BB-/	.	8dd\J	8ff\J	.	.	.	.	.	.	.	.	.	.
=41	=41	=41	=41	=41	=41	=41	=41	=41	=41	=41	=41	=41	=41
8C\L	.	8cc\L	16ee-\LL	.	.	.	.	.	.	2r	.	.	.
.	.	.	16ff\	.	.	.	.	.	.	.	.	.	.
16D\L	.	8b-\J	16dd\	.	.	.	.	.	.	.	.	.	.
16E-\J	.	.	16ee-\JJ	.	.	.	.	.	.	.	.	.	.
!LO:TX:a:t=P:problem=mixed beam	!	!	!	!	!	!	!	!	!	!	!	!	!
8F\	.	4a/	8.cc\L	.	.	.	.	.	.	.	.	.	.
8FF/J	.	.	.	.	.	.	.	.	.	.	.	.	.
.	.	.	16b-\Jk	.	.	.	.	.	.	.	.	.	.
8BB-/L	.	4b-/	4b-\	.	.	.	.	.	.	8r	.	.	.
16GG/L	.	.	.	.	.	.	.	.	.	16b-\	re-	.	.
16AA/J	.	.	.	.	.	.	.	.	.	16cc\	-prea-	.	.
8BB-/	.	4r	4r	.	.	.	.	.	.	8dd\	-sen-	.	.
8GG/J	.	.	.	.	.	.	.	.	.	8b-\	-tet	.	.
=42	=42	=42	=42	=42	=42	=42	=42	=42	=42	=42	=42	=42	=42
!	!	!LO:TX:a:t=1	!LO:TX:a:t=1	!	!	!	!	!	!	!	!	!	!
8C/L	.	1r	1r	.	.	.	.	.	.	4ee-\	eas	0r	0r
8BB-/	4	.	.	.	.	.	.	.	.	.	.	.	.
8AA/	5_	.	.	.	.	.	.	.	.	8ee-\	in	.	.
8GG/J	x	.	.	.	.	.	.	.	.	8dd\	lu-	.	.
8AA/L	.	.	.	.	.	.	.	.	.	(16cc\LL	-ce-	.	.
.	.	.	.	.	.	.	.	.	.	16dd\JJ)	.	.	.
16BB-/L	.	.	.	.	.	.	.	.	.	(16b-\LL	-ra	.	.
16C/JJ	.	.	.	.	.	.	.	.	.	16cc\JJ)	.	.	.
8D/L	.	.	.	.	.	.	.	.	.	4a\	San-	.	.
8DD/J	.	.	.	.	.	.	.	.	.	.	.	.	.
!	!	!LO:LB;g=original	!	!	!	!	!	!	!	!	!	!	!
=43	=43	=43	=43	=43	=43	=43	=43	=43	=43	=43	=43	=43	=43
4GG/	.	8r	8r	.	.	.	.	.	.	4g\	-ctam	.	.
.	.	16g/LL	16b-\LL	.	.	.	.	.	.	.	.	.	.
.	.	16a/JJ	16cc\JJ	.	.	.	.	.	.	.	.	.	.
8r	.	8b-/L	8dd\L	.	.	.	.	.	.	4r	.	.	.
8GG/	.	8g/J	8b-\J	.	.	.	.	.	.	.	.	.	.
4C/	.	16cc\LL	16ee-\LL	.	.	.	.	.	.	2r	.	.	.
.	.	16b-\	16dd\	.	.	.	.	.	.	.	.	.	.
.	.	16cc\	16ee-\	.	.	.	.	.	.	.	.	.	.
.	.	16dd\JJ	16ff\JJ	.	.	.	.	.	.	.	.	.	.
8r	.	8cc\L	8ee-\L	.	.	.	.	.	.	.	.	.	.
8GG/	.	8b-\J	8dd\J	.	.	.	.	.	.	.	.	.	.
!	!	!	!LO:LB;g=original	!	!	!	!	!	!	!	!	!	!
=44	=44	=44	=44	=44	=44	=44	=44	=44	=44	=44-	=44	=44	=44
!	!	!	!	!	!	!	!	!	!	!LO:SIC:o:s:=:v:TX:a:t=problem&colon; partia kończy się w t.44	!	!	!
!	!	!	!	!LO:SIC:o:s:=:v:partia kończy się w t.44	!	!LO:SIC:o:s:=:v:partia kończy się w t.44	!	!	!	!LO:SIC:o:s:=:v:brak kreski taktowej	!	!LO:SIC:o:s:=:v:partia kończy się w t.44	!LO:SIC:o:s:=:v:partia kończy się w t.44
8AA/L	.	8a/L	16cc\LL	1r	.	1r	.	0r	.	1r	.	1r	1r
.	.	.	16dd\	.	.	.	.	.	.	.	.	.	.
16BB-/L	.	8g/J	16b-\	.	.	.	.	.	.	.	.	.	.
16C/JJ	.	.	16cc\JJ	.	.	.	.	.	.	.	.	.	.
8D/L	.	4f#X/	8.a/L	.	.	.	.	.	.	.	.	.	.
8DD/J	.	.	.	.	.	.	.	.	.	.	.	.	.
.	.	.	16g/Jk	.	.	.	.	.	.	.	.	.	.
!	!	!LO:TX:a:t=P:problem=mixed beams	!LO:TX:a:t=P:problem=mixed beam	!	!	!	!	!	!	!	!	!	!
8GG/L	.	8g/L	8g/L	.	.	.	.	.	.	.	.	.	.
8C/	.	8ee-\J	8gg\J	.	.	.	.	.	.	.	.	.	.
8D/	.	8.a/L	16ff#X\LL	.	.	.	.	.	.	.	.	.	.
.	.	.	16gg\	.	.	.	.	.	.	.	.	.	.
!LO:SIC:o:s:=:v:partia kończy się w t.44	!	!	!	!	!	!	!	!	!	!	!	!	!
8DD/J	.	.	16aa\	.	.	.	.	.	.	.	.	.	.
!	!	!	!LO:TX:a:t=P:problem=# abowe	!	!	!	!	!	!	!	!	!	!
!	!	!LO:SIC:o:s:=:v:partia kończy się w t.44	!LO:SIC:o:s:=:v:partia kończy się w t.44	!	!	!	!	!	!	!	!	!	!
.	.	16a/Jk	16ff#X\JJ	.	.	.	.	.	.	.	.	.	.
=45	=45	=45	=45	=45	=45	=45	=45	=45	=45	=45	=45	=45	=45
!	!	!	!	!	!	!	!	!LO:SIC:o:=:v: zbędny takt 45	!	!	!	!	!
1ryy	.	1ryy	1ryy	1ryy	.	1ryy	.	.	.	1ryy	.	1ryy	1ryy
=||	=||	=||	=||	=||	=||	=||	=||	=||	=||	=	=	=||	=||
*-	*-	*-	*-	*-	*-	*-	*-	*-	*-	*-	*-	*-	*-
!!!system-decoration: [(s1,s2)][(s3,s4,s5,s6)][(s7,s8)][(s9)]
!!!EED: Leszek Kubiak
!!!EEV: 2020-12-04
!!!ENC: Marcin Jachim
!!!END: 2020-04-29
